Newaita-dark/actions/16/view-calendar-month.svg

<svg height="16" viewBox="0 0 16 16" width="16" xmlns="http://www.w3.org/2000/svg"><g fill="#e0e0e0"><path d="m2.644531 1.449219c-.730469 0-1.320312.589843-1.320312 1.320312v10.585938c0 .734375.589843 1.324219 1.320312 1.324219h10.585938c.734375 0 1.324219-.589844 1.324219-1.324219v-10.585938c0-.730469-.589844-1.320312-1.324219-1.320312zm.664063 1.320312h9.261718c.363282 0 .660157.296875.660157.664063v9.261718c0 .363282-.296875.660157-.660157.660157h-9.261718c-.367188 0-.664063-.296875-.664063-.660157v-9.261718c0-.367188.296875-.664063.664063-.664063zm0 0"/><path d="m11.246094 3.433594c.363281 0 .660156.296875.660156.660156 0 .367188-.296875.660156-.660156.660156-.367188 0-.660156-.292968-.660156-.660156 0-.363281.292968-.660156.660156-.660156zm0 0"/><path d="m1.984375 5.417969h11.90625v.660156h-11.90625zm0 0"/><path d="m4.132812 7.402344c.183594 0 .332032.148437.332032.332031v2.976563c0 .179687-.148438.328124-.332032.328124-.179687 0-.328124-.148437-.328124-.328124v-2.976563c0-.183594.148437-.332031.328124-.332031zm0 0"/><path d="m4.628906 3.433594c.367188 0 .664063.296875.664063.660156 0 .367188-.296875.660156-.664063.660156-.363281 0-.660156-.292968-.660156-.660156 0-.363281.296875-.660156.660156-.660156zm0 0"/><path d="m11.742188 7.402344c.183593 0 .332031.148437.332031.332031v2.976563c0 .179687-.148438.328124-.332031.328124-.183594 0-.332032-.148437-.332032-.328124v-2.976563c0-.183594.148438-.332031.332032-.332031zm0 0"/><path d="m12.074219 7.734375c0 .179687-.148438.328125-.332031.328125h-7.609376c-.179687 0-.328124-.148438-.328124-.328125 0-.183594.148437-.332031.328124-.332031h7.609376c.183593 0 .332031.148437.332031.332031zm0 0"/><path d="m12.074219 10.710938c0 .179687-.148438.328124-.332031.328124h-7.609376c-.179687 0-.328124-.148437-.328124-.328124 0-.183594.148437-.332032.328124-.332032h7.609376c.183593 0 .332031.148438.332031.332032zm0 0"/></g></svg>

<?xml version="1.0" encoding="UTF-8"?>
<svg xmlns="http://www.w3.org/2000/svg" xmlns:xlink="http://www.w3.org/1999/xlink" width="16px" height="16px" viewBox="0 0 16 16" version="1.1">
<g id="surface1">
<path style=" stroke:none;fill-rule:nonzero;fill:rgb(87.843138%,87.843138%,87.843138%);fill-opacity:1;" d="M 2.644531 1.449219 C 1.914062 1.449219 1.324219 2.039062 1.324219 2.769531 L 1.324219 13.355469 C 1.324219 14.089844 1.914062 14.679688 2.644531 14.679688 L 13.230469 14.679688 C 13.964844 14.679688 14.554688 14.089844 14.554688 13.355469 L 14.554688 2.769531 C 14.554688 2.039062 13.964844 1.449219 13.230469 1.449219 Z M 3.308594 2.769531 L 12.570312 2.769531 C 12.933594 2.769531 13.230469 3.066406 13.230469 3.433594 L 13.230469 12.695312 C 13.230469 13.058594 12.933594 13.355469 12.570312 13.355469 L 3.308594 13.355469 C 2.941406 13.355469 2.644531 13.058594 2.644531 12.695312 L 2.644531 3.433594 C 2.644531 3.066406 2.941406 2.769531 3.308594 2.769531 Z M 3.308594 2.769531 "/>
<path style=" stroke:none;fill-rule:nonzero;fill:rgb(87.843138%,87.843138%,87.843138%);fill-opacity:1;" d="M 11.246094 3.433594 C 11.609375 3.433594 11.90625 3.730469 11.90625 4.09375 C 11.90625 4.460938 11.609375 4.753906 11.246094 4.753906 C 10.878906 4.753906 10.585938 4.460938 10.585938 4.09375 C 10.585938 3.730469 10.878906 3.433594 11.246094 3.433594 Z M 11.246094 3.433594 "/>
<path style=" stroke:none;fill-rule:nonzero;fill:rgb(87.843138%,87.843138%,87.843138%);fill-opacity:1;" d="M 1.984375 5.417969 L 13.890625 5.417969 L 13.890625 6.078125 L 1.984375 6.078125 Z M 1.984375 5.417969 "/>
<path style=" stroke:none;fill-rule:nonzero;fill:rgb(87.843138%,87.843138%,87.843138%);fill-opacity:1;" d="M 4.132812 7.402344 C 4.316406 7.402344 4.464844 7.550781 4.464844 7.734375 L 4.464844 10.710938 C 4.464844 10.890625 4.316406 11.039062 4.132812 11.039062 C 3.953125 11.039062 3.804688 10.890625 3.804688 10.710938 L 3.804688 7.734375 C 3.804688 7.550781 3.953125 7.402344 4.132812 7.402344 Z M 4.132812 7.402344 "/>
<path style=" stroke:none;fill-rule:nonzero;fill:rgb(87.843138%,87.843138%,87.843138%);fill-opacity:1;" d="M 4.628906 3.433594 C 4.996094 3.433594 5.292969 3.730469 5.292969 4.09375 C 5.292969 4.460938 4.996094 4.753906 4.628906 4.753906 C 4.265625 4.753906 3.96875 4.460938 3.96875 4.09375 C 3.96875 3.730469 4.265625 3.433594 4.628906 3.433594 Z M 4.628906 3.433594 "/>
<path style=" stroke:none;fill-rule:nonzero;fill:rgb(87.843138%,87.843138%,87.843138%);fill-opacity:1;" d="M 11.742188 7.402344 C 11.925781 7.402344 12.074219 7.550781 12.074219 7.734375 L 12.074219 10.710938 C 12.074219 10.890625 11.925781 11.039062 11.742188 11.039062 C 11.558594 11.039062 11.410156 10.890625 11.410156 10.710938 L 11.410156 7.734375 C 11.410156 7.550781 11.558594 7.402344 11.742188 7.402344 Z M 11.742188 7.402344 "/>
<path style=" stroke:none;fill-rule:nonzero;fill:rgb(87.843138%,87.843138%,87.843138%);fill-opacity:1;" d="M 12.074219 7.734375 C 12.074219 7.914062 11.925781 8.0625 11.742188 8.0625 L 4.132812 8.0625 C 3.953125 8.0625 3.804688 7.914062 3.804688 7.734375 C 3.804688 7.550781 3.953125 7.402344 4.132812 7.402344 L 11.742188 7.402344 C 11.925781 7.402344 12.074219 7.550781 12.074219 7.734375 Z M 12.074219 7.734375 "/>
<path style=" stroke:none;fill-rule:nonzero;fill:rgb(87.843138%,87.843138%,87.843138%);fill-opacity:1;" d="M 12.074219 10.710938 C 12.074219 10.890625 11.925781 11.039062 11.742188 11.039062 L 4.132812 11.039062 C 3.953125 11.039062 3.804688 10.890625 3.804688 10.710938 C 3.804688 10.527344 3.953125 10.378906 4.132812 10.378906 L 11.742188 10.378906 C 11.925781 10.378906 12.074219 10.527344 12.074219 10.710938 Z M 12.074219 10.710938 "/>
</g>
</svg>
